X: 144
T:Rathlin Island
M:4/4
L:1/8
C:Reel
H:Version of 'Sean sa Ceo'
K:G
e2dB eAA2 | egdB BGBd | e2dB eAA2 | d2BA BAA2 :|!
A3B G2EG | A2GA dee2 | A3B (3egeAB | dged BAA2 :||
